X:1
T:St. Dorothea, 76.76.78.76
T:St. Dorothea, 76.76.78.76
T:Charles John Vincent, Jr. (1852-1934)
T:Public Domain Courtesy of the Cyber Hymnal™
C:Charles John Vincent, Jr. (1852-1934)
Z:Public Domain
Z:Courtesy of the Cyber Hymnal™
%%score ( 1 2 ) ( 3 4 )
L:1/8
Q:1/4=107
M:4/4
K:G
V:1 treble 
V:2 treble 
V:3 bass 
V:4 bass 
V:1
 [GB]2 [GB]2 [Gc]3 [GB] | [GA]2 [FB]2 [EG]2 [CE]2 | [B,D]2 [B,E]2 [DF]2 [DG]2 | A6 z2 | %4
 [DB]2 [GB]2 [Gc]2 ([Gc][FB]) | [EA]2 [DB]2 [DG]2 [DG]2 | [DF]2 [DF]2 [DG]2 [^CE]2 | D6 z2 | %8
 [DF]2 [EG]2 [FA]2 [Fc]2 | [Gc]3 [DB] [DB]2 [^DA]2 | [E^G]2 [FA]2 [GB]2 [Gd]2 | [Ad]3 [Ac] [Ac]4 | %12
 [GB]2 [GB]2 [Gc]2 B2 | A3 z B [=DG]2 [^DG]2 | [EG]2 [EG]2 [DG]2 [CF]2 | [B,G]8 |] %16
V:2
 x8 | x8 | x8 | (^C4 D2) x2 | x8 | x8 | x8 | D6 x2 | x8 | x8 | x8 | x4 (G2 F2) | x6 (GF) | %13
 E2 ^D2 x5 | x8 | x8 |] %16
V:3
 [G,D]2 [F,D]2 [E,C]3 [D,D] | [C,E]2 (DC) [E,B,]2 [F,A,]2 | [G,B,]2 G,2 [F,A,]2 [E,B,]2 | %3
 (A,2 G,2 [D,F,]2) z2 | G,2 [G,D]2 [G,E]2 (ED) | [G,C]2 [F,C]2 [G,B,]2 [E,B,]2 | %6
 A,2 A,2 [A,,B,]2 [A,,G,]2 | (G,4 F,2) z2 | [D,B,]2 [D,B,]2 [D,C]2 [D,C]2 | %9
 [G,E]3 [G,D] G,2 [F,A,]2 | [E,B,]2 [E,C]2 [E,D]2 [E,=F]2 | [A,=F]3 [A,E] [B,,D]4 | %12
 [G,D]2 [G,^D]2 [G,E]2 [G,=D]2 | [G,C]2 [F,C]2 [G,B,]2 [B,,G,]2 x | %14
 [C,G,]2 [A,,C]2 [D,B,]2 [D,A,]2 | [G,,G,]8 |] %16
V:4
 x8 | x2 D,2 x4 | x2 G,2 x4 | A,,4 x4 | G,2 x2 G,2 x2 | x8 | A,2 A,2 x4 | D,6 x2 | x8 | x4 G,2 x2 | %10
 x8 | x8 | x8 | x9 | x8 | x8 |] %16

